Sources/FrostedUI/Resources/Icons.xcassets/lockOpen32.imageset/lock-open-32.svg

<svg width="32" height="32" viewBox="0 0 32 32" fill="none" xmlns="http://www.w3.org/2000/svg" data-fui-icon="true">
  <path
    d="M16 0C20.8772 0 24.9373 3.49125 25.8213 8.11035C25.8989 8.51703 25.6323 8.90947 25.2256 8.9873C24.8188 9.06504 24.4265 8.79836 24.3486 8.3916C23.5973 4.46619 20.144 1.5 16 1.5C11.3056 1.5 7.5 5.30558 7.5 10V13.5H24.9502C27.7391 13.5001 29.9999 15.7609 30 18.5498V26.9502C29.9999 29.7391 27.7391 31.9999 24.9502 32H7.0498C4.26092 31.9999 2.00011 29.7391 2 26.9502V18.5498C2.00009 16.1209 3.71496 14.0926 6 13.6094V10C6 4.47715 10.4772 0 16 0ZM7.0498 15C5.08935 15.0001 3.50011 16.5893 3.5 18.5498V26.9502C3.50011 28.9107 5.08935 30.4999 7.0498 30.5H24.9502C26.9107 30.4999 28.4999 28.9107 28.5 26.9502V18.5498C28.4999 16.5893 26.9107 15.0001 24.9502 15H7.0498Z"
    fill="currentColor"
  />
</svg>

<svg xmlns="http://www.w3.org/2000/svg" width="32" height="32" fill="none" data-fui-icon="true" viewBox="0 0 32 32"><path fill="currentColor" d="M16 0c4.877 0 8.937 3.491 9.821 8.11a.75.75 0 0 1-1.472.282A8.5 8.5 0 0 0 7.5 10v3.5h17.45A5.05 5.05 0 0 1 30 18.55v8.4A5.05 5.05 0 0 1 24.95 32H7.05A5.05 5.05 0 0 1 2 26.95v-8.4a5.05 5.05 0 0 1 4-4.94V10C6 4.477 10.477 0 16 0M7.05 15a3.55 3.55 0 0 0-3.55 3.55v8.4a3.55 3.55 0 0 0 3.55 3.55h17.9a3.55 3.55 0 0 0 3.55-3.55v-8.4A3.55 3.55 0 0 0 24.95 15z"/></svg>
